assets/efishery/cumi-cumi.svg

<svg width="24" height="25" viewBox="0 0 24 25" fill="none" xmlns="http://www.w3.org/2000/svg">
<path fill-rule="evenodd" clip-rule="evenodd" d="M13.7261 2.83477C13.6472 2.82111 13.5687 2.8084 13.4905 2.79668C13.3162 2.66035 13.1348 2.54171 12.9514 2.45234C12.7569 2.35761 12.5148 2.27344 12.2527 2.27344C11.9906 2.27344 11.7484 2.35761 11.554 2.45234C11.36 2.54683 11.1683 2.67404 10.9849 2.82029C10.2933 2.82207 9.64845 3.06387 9.09436 3.38928C8.49196 3.74308 7.95301 4.22083 7.50998 4.69769C7.06549 5.17611 6.69798 5.67477 6.44264 6.0918C6.3157 6.29912 6.20841 6.4994 6.13306 6.67664C6.09575 6.76439 6.05984 6.86144 6.03509 6.96034C6.01583 7.03728 5.97805 7.20803 6.01683 7.40197C6.077 7.70287 6.25072 7.94444 6.42237 8.12103C6.6017 8.30553 6.82856 8.47069 7.08444 8.61598C7.46147 8.83006 7.9375 9.02139 8.50415 9.17216C7.54081 9.49934 6.84766 10.4114 6.84766 11.4853C6.84766 12.5729 7.55855 13.4945 8.54102 13.8107V14.8701C8.54102 15.3069 8.71645 15.7027 9.00069 15.9909C9.00023 16.0017 9 16.0125 9 16.0234C9 17.0996 8.88855 17.649 8.71321 17.9308C8.60397 18.1063 8.41255 18.2734 7.75 18.2734C7.33579 18.2734 7 18.6092 7 19.0234C7 19.4377 7.33579 19.7734 7.75 19.7734C8.68745 19.7734 9.49603 19.512 9.98679 18.7232C10.3517 18.1368 10.4684 17.3522 10.4941 16.4663H10.4976C10.4766 18.3626 10.3153 19.5742 9.97036 20.3134C9.79763 20.6836 9.59268 20.9024 9.35582 21.0393C9.11035 21.1813 8.76422 21.2734 8.25 21.2734C7.83579 21.2734 7.5 21.6092 7.5 22.0234C7.5 22.4377 7.83579 22.7734 8.25 22.7734C8.93578 22.7734 9.56465 22.6513 10.1067 22.3379C10.6573 22.0195 11.0524 21.5419 11.3296 20.9477C11.8214 19.8941 11.9782 18.3868 11.9978 16.4663H12.5022C12.5218 18.3868 12.6786 19.8941 13.1704 20.9477C13.4476 21.5419 13.8427 22.0195 14.3933 22.3379C14.9353 22.6513 15.5642 22.7734 16.25 22.7734C16.6642 22.7734 17 22.4377 17 22.0234C17 21.6092 16.6642 21.2734 16.25 21.2734C15.7358 21.2734 15.3897 21.1813 15.1442 21.0393C14.9073 20.9024 14.7024 20.6836 14.5296 20.3134C14.1847 19.5742 14.0234 18.3626 14.0024 16.4663H14.0059C14.0316 17.3522 14.1483 18.1368 14.5132 18.7232C15.004 19.512 15.8126 19.7734 16.75 19.7734C17.1642 19.7734 17.5 19.4377 17.5 19.0234C17.5 18.6092 17.1642 18.2734 16.75 18.2734C16.0874 18.2734 15.896 18.1063 15.7868 17.9308C15.6115 17.649 15.5 17.0996 15.5 16.0234C15.5 16.0143 15.4998 16.0051 15.4995 15.9961C15.7868 15.7074 15.9643 15.3095 15.9643 14.8701V13.8103C16.9461 13.4936 17.6562 12.5724 17.6562 11.4853C17.6562 10.4179 16.9715 9.51041 16.0172 9.17818C16.5501 9.03975 17.0221 8.85252 17.4014 8.64278C17.6664 8.49623 17.9113 8.32489 18.1009 8.13064C18.2683 7.95917 18.5027 7.6571 18.5027 7.25492C18.5027 7.06451 18.4435 6.87564 18.3977 6.74923C18.343 6.59847 18.2667 6.42932 18.1716 6.25045C17.981 5.8919 17.6998 5.46503 17.3227 5.03256C16.5682 4.16738 15.4035 3.251 13.7795 2.84604L13.753 2.83943L13.7261 2.83477ZM11.0716 4.93675C10.5029 5.76007 10.041 6.88347 10.041 8.10057C10.041 8.19464 10.0847 8.34281 10.2312 8.60576C10.2818 8.69666 10.3333 8.78212 10.391 8.878C10.4151 8.91804 10.4404 8.96017 10.4671 9.005C10.5508 9.14563 10.6459 9.31031 10.7242 9.48266C10.7298 9.49492 10.735 9.50725 10.7399 9.51965C11.342 9.96446 11.7324 10.6793 11.7324 11.4853C11.7324 12.5722 11.0225 13.4933 10.041 13.8101V14.8701C10.041 14.9232 10.0841 14.9663 10.1372 14.9663H14.3681C14.4213 14.9663 14.4643 14.9232 14.4643 14.8701V13.8106C13.4821 13.4942 12.7715 12.5728 12.7715 11.4853C12.7715 10.6784 13.1628 9.96284 13.7661 9.51813C13.7708 9.50625 13.7758 9.49442 13.7811 9.48266C13.8595 9.31031 13.9545 9.14563 14.0382 9.005C14.0649 8.96012 14.0902 8.91821 14.1143 8.87813C14.172 8.78225 14.2235 8.69667 14.2742 8.60576C14.4207 8.34281 14.4643 8.19464 14.4643 8.10057C14.4643 6.88347 14.0024 5.76007 13.4337 4.93675C13.2051 4.60582 12.968 4.33618 12.752 4.13671V5.9851C12.752 6.26124 12.5281 6.4851 12.252 6.4851C11.9758 6.4851 11.752 6.26124 11.752 5.9851V4.13804C11.5363 4.33738 11.2997 4.60656 11.0716 4.93675ZM16.6756 7.33009C16.4818 7.43721 16.2356 7.54411 15.9475 7.63708C15.8826 6.74369 15.6361 5.91478 15.3018 5.19416C15.6517 5.45384 15.9476 5.73803 16.1922 6.01842C16.493 6.36342 16.7094 6.69549 16.847 6.9544C16.8876 7.03075 16.92 7.09823 16.9451 7.15549C16.8822 7.20491 16.7937 7.26475 16.6756 7.33009ZM8.55877 7.62483C8.62727 6.70517 8.88809 5.85415 9.23862 5.11963C9.01858 5.30217 8.80687 5.50557 8.60889 5.71866C8.23279 6.12347 7.92557 6.54241 7.7219 6.87506C7.659 6.97779 7.60899 7.06738 7.57106 7.14169C7.63042 7.19015 7.71341 7.24817 7.82508 7.31158C8.01005 7.41661 8.25393 7.52518 8.55877 7.62483ZM15.2099 12.4277C14.6913 12.4256 14.2715 12.0045 14.2715 11.4853C14.2715 10.9649 14.6934 10.543 15.2139 10.543C15.7343 10.543 16.1562 10.9649 16.1562 11.4853C16.1562 12.0058 15.7343 12.4277 15.2139 12.4277L15.2099 12.4277ZM10.2324 11.4853C10.2324 12.0042 9.81306 12.4252 9.29478 12.4277L9.29102 12.4277L9.28638 12.4277C8.7676 12.4257 8.34766 12.0046 8.34766 11.4853C8.34766 10.9649 8.76957 10.543 9.29003 10.543C9.81049 10.543 10.2324 10.9649 10.2324 11.4853ZM17.0564 7.04901C17.0568 7.049 17.0547 7.05244 17.0489 7.05938C17.0532 7.05249 17.056 7.04902 17.0564 7.04901ZM7.46191 7.03295L7.46325 7.0351C7.46229 7.03367 7.46188 7.03296 7.46191 7.03295Z" fill="#1D1D1D"/>
</svg>

<svg viewBox="0 0 24 25" xmlns="http://www.w3.org/2000/svg">
  <path fill-rule="evenodd" clip-rule="evenodd" d="M13.726 2.835a10.528 10.528 0 0 0-.236-.038 3.074 3.074 0 0 0-.539-.345 1.615 1.615 0 0 0-.698-.179c-.262 0-.505.085-.699.18a3.118 3.118 0 0 0-.57.367c-.69.002-1.336.244-1.89.57-.602.353-1.141.83-1.584 1.308a9.081 9.081 0 0 0-1.067 1.394 4.62 4.62 0 0 0-.31.585 1.938 1.938 0 0 0-.098.283 1.01 1.01 0 0 0-.018.442c.06.3.234.542.405.719.18.185.407.35.662.495.377.214.854.405 1.42.556a2.443 2.443 0 0 0 .037 4.639v1.06c0 .436.175.832.46 1.12L9 16.023c0 1.077-.111 1.626-.287 1.908-.109.175-.3.342-.963.342a.75.75 0 0 0 0 1.5c.937 0 1.746-.261 2.237-1.05.365-.586.481-1.37.507-2.257h.004c-.021 1.897-.183 3.108-.528 3.847-.172.37-.377.59-.614.726-.246.142-.592.234-1.106.234a.75.75 0 0 0 0 1.5c.686 0 1.315-.122 1.857-.435.55-.319.945-.796 1.223-1.39.491-1.054.648-2.561.668-4.482h.504c.02 1.92.177 3.428.668 4.482.278.594.673 1.072 1.223 1.39.542.313 1.171.435 1.857.435a.75.75 0 1 0 0-1.5c-.514 0-.86-.092-1.106-.234-.237-.137-.442-.355-.614-.726-.345-.739-.507-1.95-.528-3.847h.004c.026.886.142 1.67.507 2.257.491.789 1.3 1.05 2.237 1.05a.75.75 0 1 0 0-1.5c-.663 0-.854-.167-.963-.342-.176-.282-.287-.831-.287-1.908v-.027c.287-.289.464-.687.464-1.126v-1.06a2.443 2.443 0 0 0 .053-4.632 6.024 6.024 0 0 0 1.384-.535 3.03 3.03 0 0 0 .7-.512c.167-.172.402-.474.402-.876 0-.19-.06-.38-.105-.506a3.96 3.96 0 0 0-.226-.499 6.608 6.608 0 0 0-.85-1.217 6.919 6.919 0 0 0-3.542-2.187l-.027-.007-.027-.004zm-2.654 2.102c-.57.823-1.031 1.946-1.031 3.164 0 .094.044.242.19.505.05.09.102.176.16.272l.076.127a4.954 4.954 0 0 1 .273.515 2.443 2.443 0 0 1-.699 4.29v1.06c0 .053.043.096.096.096h4.231a.096.096 0 0 0 .096-.096v-1.06a2.443 2.443 0 0 1-.698-4.292 4.976 4.976 0 0 1 .272-.513l.076-.127c.058-.096.11-.181.16-.272.147-.263.19-.411.19-.505 0-1.218-.462-2.34-1.03-3.164-.229-.331-.466-.6-.682-.8v1.848a.5.5 0 0 1-1 0V4.138c-.216.2-.452.469-.68.799zm5.604 2.393c-.194.107-.44.214-.728.307a7.038 7.038 0 0 0-.646-2.443c.35.26.646.544.89.824.301.345.517.677.655.936.04.077.073.144.098.201-.063.05-.151.11-.27.175zm-8.117.295c.068-.92.33-1.77.68-2.505a7.586 7.586 0 0 0-1.517 1.755 4.01 4.01 0 0 0-.15.267c.058.048.141.106.253.17.185.105.429.213.734.313zm6.65 4.803a.942.942 0 1 1 .005 0h-.004zm-4.977-.943c0 .52-.419.94-.937.943H9.286a.942.942 0 1 1 .946-.943zm6.824-4.436-.007.01a.05.05 0 0 1 .007-.01zm-9.594-.016.001.002a.018.018 0 0 1-.001-.002z"/>
</svg>
